X:265
T:Tarbolton
R:Reel
H:This set comes from the playing of Michael Coleman.
N:Often played as a set: Tarbolton/The Longford Collector/The
N:Sailor's Bonnet.
Z:id:hn-reel-21
M:4/4
L:1/8
Q:1/4=200
K:Edor
|:Beed e2BA|GBAF GFEF|Dddc d2AG|FAGE FEDF|
Eeed efge|fedf e2BA|GABG FGAF|BGAF GEE2:|
|:gfef gebe|gebe gfec|d2fd Adfd|cdAG FDEF|
GABG FGAF|E2ef gfed|BcdB A2FA|BGAF GEE2:|
